X: 36
T:Russian Dance. WCa.36
T:Opera Hat. WCa.36
M:2/4
Q:90
C:"or Opera Hat"
S:Wm. Calvert MS, 1812, Leyburn, Yorks.
R:Country Dance
O:England
A:North Yorkshire
N:Accompanied by violin fingering in the MS...CGP..
Z:vmp.Chris Partington, May 2003
K:G
DG|B2DG|B2DG|cdBc|A2DF|A2DF|A2DF|BcAB|G2::!
dc|B2BA|G2gf|edcB|c2dc|B2AG|FGAG|FDEF|G2:||
W:Accompanied by fiddle fingering.|
